client/public/static/images/use-case-real-estate.svg

<svg fill="none" height="64" viewBox="0 0 68 64" width="68" xmlns="http://www.w3.org/2000/svg" xmlns:xlink="http://www.w3.org/1999/xlink"><clipPath id="a"><path d="m.5 0h67.1475v64h-67.1475z"/></clipPath><mask id="b" fill="#fff"><rect fill="#fff" height="13" rx="1" width="7" x="52" y="2"/></mask><g clip-path="url(#a)"><rect fill="#fff" height="13" mask="url(#b)" rx="1" stroke="#a0aec0" stroke-width="3" width="7" x="52" y="2"/><rect fill="#fff" height="35.5" rx="2.25" stroke="#a0aec0" stroke-width="1.5" width="55.5" x="8.75" y="27.75"/><g fill="#a0aec0"><path d="m42.3606 62.5003h-11.8483v-19.615c.0005-.4652.1856-.9113.5145-1.2402.329-.329.775-.514 1.2402-.5145h8.3389c.4652.0005.9112.1855 1.2402.5145.329.3289.514.775.5145 1.2402z"/><path d="m25.508 46.8284h-10.0084c-.3992-.0005-.7819-.1593-1.0642-.4416-.2823-.2822-.4411-.665-.4415-1.0642v-8.2511c.0004-.3992.1592-.7819.4415-1.0642s.665-.4411 1.0642-.4415h10.0084c.3992.0004.7819.1592 1.0642.4415s.4411.665.4415 1.0642v8.2511c-.0004.3992-.1592.7819-.4415 1.0642s-.665.4411-1.0642.4416z"/><path d="m57.6043 46.8284h-10.0084c-.3992-.0005-.782-.1593-1.0642-.4416-.2823-.2823-.4411-.665-.4416-1.0642v-8.2511c.0005-.3992.1593-.7819.4416-1.0642s.665-.4411 1.0642-.4415h10.0084c.3992.0004.7819.1592 1.0642.4415s.4411.665.4416 1.0642v8.2511c-.0005.3992-.1593.7819-.4416 1.0642-.2822.2823-.665.4411-1.0642.4416z"/></g><path d="m5.82993 26.0897v-5.3767c0-.413.10917-.8187.31647-1.176.20729-.3572.50533-.6533.86392-.8583l29.87408-17.07453c.3708-.21194.7926-.31849 1.2195-.30813.427.01036.8431.13724 1.2032.36693l26.6526 16.99963c.332.2117.6052.5037.7945.849s.2886.7327.2886 1.1264v5.4517c0 .6215-.2469 1.2174-.6863 1.6568-.4394.4395-1.0354.6863-1.6568.6863h-56.5267c-.62142 0-1.21739-.2468-1.65681-.6863-.43941-.4394-.68626-1.0353-.68626-1.6568z" fill="#4a5568"/><path d="m64.6997 26.0389h-56.52671c-.62142 0-1.21739-.2468-1.6568-.6862-.4394-.4395-.68626-1.0354-.68626-1.6568v2.1274c0 .6214.24686 1.2174.68626 1.6568.43941.4394 1.03538.6863 1.6568.6863h56.52671c.6214 0 1.2174-.2469 1.6568-.6863s.6863-1.0354.6863-1.6568v-2.1274c0 .6214-.2469 1.2173-.6863 1.6568-.4394.4394-1.0354.6862-1.6568.6862z" fill="#2d3748" opacity=".2"/><path d="m19.913 21.7065c0 5.0846-4.1219 9.2065-9.2065 9.2065-5.08462 0-9.2065-4.1219-9.2065-9.2065s4.12188-9.2065 9.2065-9.2065c5.0846 0 9.2065 4.1219 9.2065 9.2065z" fill="#6059f7" stroke="#fff"/><path d="m16.3333 18-7.3333 7.3333-3.33333-3.3333" stroke="#fff" stroke-linecap="round" stroke-linejoin="round" stroke-width="2"/></g></svg>

<svg width="68" height="64" viewBox="0 0 68 64" fill="none" xmlns="http://www.w3.org/2000/svg">
<g clip-path="url(#clip0)">
<mask id="path-1-inside-1" fill="white">
<rect x="52" y="2" width="7" height="13" rx="1"/>
</mask>
<rect x="52" y="2" width="7" height="13" rx="1" fill="white" stroke="#A0AEC0" stroke-width="3" mask="url(#path-1-inside-1)"/>
<rect x="8.75" y="27.75" width="55.5" height="35.5" rx="2.25" fill="white" stroke="#A0AEC0" stroke-width="1.5"/>
<path d="M42.3606 62.5003H30.5123V42.8853C30.5128 42.4201 30.6979 41.974 31.0268 41.6451C31.3558 41.3161 31.8018 41.1311 32.267 41.1306H40.6059C41.0711 41.1311 41.5171 41.3161 41.8461 41.6451C42.1751 41.974 42.3601 42.4201 42.3606 42.8853V62.5003Z" fill="#A0AEC0"/>
<path d="M25.508 46.8284H15.4996C15.1004 46.8279 14.7177 46.6691 14.4354 46.3868C14.1531 46.1046 13.9943 45.7218 13.9939 45.3226V37.0715C13.9943 36.6723 14.1531 36.2896 14.4354 36.0073C14.7177 35.725 15.1004 35.5662 15.4996 35.5658H25.508C25.9072 35.5662 26.2899 35.725 26.5722 36.0073C26.8545 36.2896 27.0133 36.6723 27.0137 37.0715V45.3226C27.0133 45.7218 26.8545 46.1045 26.5722 46.3868C26.2899 46.6691 25.9072 46.8279 25.508 46.8284Z" fill="#A0AEC0"/>
<path d="M57.6043 46.8284H47.5959C47.1967 46.8279 46.8139 46.6691 46.5317 46.3868C46.2494 46.1045 46.0906 45.7218 46.0901 45.3226V37.0715C46.0906 36.6723 46.2494 36.2896 46.5317 36.0073C46.814 35.725 47.1967 35.5662 47.5959 35.5658H57.6043C58.0035 35.5662 58.3862 35.725 58.6685 36.0073C58.9508 36.2896 59.1096 36.6723 59.1101 37.0715V45.3226C59.1096 45.7218 58.9508 46.1045 58.6685 46.3868C58.3863 46.6691 58.0035 46.8279 57.6043 46.8284Z" fill="#A0AEC0"/>
<path d="M5.82993 26.0897V20.713C5.82993 20.3 5.9391 19.8943 6.1464 19.537C6.35369 19.1798 6.65173 18.8837 7.01032 18.6787L36.8844 1.60417C37.2552 1.39223 37.677 1.28568 38.1039 1.29604C38.5309 1.3064 38.947 1.43328 39.3071 1.66297L65.9597 18.6626C66.2917 18.8743 66.5649 19.1663 66.7542 19.5116C66.9435 19.8569 67.0428 20.2443 67.0428 20.638V26.0897C67.0428 26.7112 66.7959 27.3071 66.3565 27.7465C65.9171 28.186 65.3211 28.4328 64.6997 28.4328H8.173C7.55158 28.4328 6.95561 28.186 6.51619 27.7465C6.07678 27.3071 5.82993 26.7112 5.82993 26.0897Z" fill="#4A5568"/>
<path opacity="0.2" d="M64.6997 26.0389H8.17299C7.55157 26.0389 6.9556 25.7921 6.51619 25.3527C6.07679 24.9132 5.82993 24.3173 5.82993 23.6959V25.8233C5.82993 26.4447 6.07679 27.0407 6.51619 27.4801C6.9556 27.9195 7.55157 28.1664 8.17299 28.1664H64.6997C65.3211 28.1664 65.9171 27.9195 66.3565 27.4801C66.7959 27.0407 67.0428 26.4447 67.0428 25.8233V23.6959C67.0428 24.3173 66.7959 24.9132 66.3565 25.3527C65.9171 25.7921 65.3211 26.0389 64.6997 26.0389Z" fill="#2D3748"/>
<path d="M19.913 21.7065C19.913 26.7911 15.7911 30.913 10.7065 30.913C5.62188 30.913 1.5 26.7911 1.5 21.7065C1.5 16.6219 5.62188 12.5 10.7065 12.5C15.7911 12.5 19.913 16.6219 19.913 21.7065Z" fill="#6059F7" stroke="white"/>
<path d="M16.3333 18L9 25.3333L5.66667 22" stroke="white" stroke-width="2" stroke-linecap="round" stroke-linejoin="round"/>
</g>
<defs>
<clipPath id="clip0">
<rect width="67.1475" height="64" fill="white" transform="translate(0.5)"/>
</clipPath>
</defs>
</svg>
